src/assets/img/garant.svg

<svg width="131" height="155" viewBox="0 0 131 155" fill="none" xmlns="http://www.w3.org/2000/svg">
<path d="M43.9719 16.9902L43.7835 18.1515L43.9719 16.9902ZM51.8719 14.0492L50.9753 13.2875V13.2875L51.8719 14.0492ZM22.1381 23.6764L20.9618 23.6566L22.1381 23.6764ZM32.1613 15.0739L32.3497 13.9126L32.1613 15.0739ZM17.7288 43.3529L17.113 42.3504H17.113L17.7288 43.3529ZM21.9323 35.906L23.1086 35.9258L21.9323 35.906ZM5.20495 62.8298L6.12716 62.0993L5.20495 62.8298ZM7.47701 49.65L8.09277 50.6525H8.09277L7.47701 49.65ZM14.1927 80.8019L13.0778 80.4262L14.1927 80.8019ZM12.7328 72.3335L11.8106 73.064L12.7328 72.3335ZM16.8388 103.956L17.068 102.802H17.068L16.8388 103.956ZM10.2967 92.3659L11.4116 92.7415L10.2967 92.3659ZM35.0181 111.814L33.9166 112.227L35.0181 111.814ZM28.578 106.287L28.3489 107.441L28.578 106.287ZM51.5962 127.812L51.0157 126.788L51.5962 127.812ZM39.3009 123.234L40.4025 122.821L39.3009 123.234ZM70.4607 121.879L69.8802 122.902L70.4607 121.879ZM62.0537 121.879L62.6342 122.902V122.902L62.0537 121.879ZM93.2135 123.234L94.3151 123.647L93.2135 123.234ZM80.9183 127.812L81.4988 126.788L80.9183 127.812ZM103.936 106.287L104.166 107.441L103.936 106.287ZM97.4963 111.814L96.3948 111.401H96.3948L97.4963 111.814ZM122.218 92.3659L123.333 91.9903L122.218 92.3659ZM115.676 103.956L115.446 102.802L115.676 103.956ZM119.782 72.3335L118.859 71.603L119.782 72.3335ZM118.322 80.8019L117.207 81.1775L118.322 80.8019ZM125.037 49.65L124.422 50.6525L125.037 49.65ZM127.31 62.8298L128.232 63.5603L127.31 62.8298ZM110.582 35.906L111.759 35.8862L110.582 35.906ZM114.786 43.3529L115.401 42.3504L114.786 43.3529ZM100.353 15.0739L100.165 13.9126L100.353 15.0739ZM110.376 23.6764L109.2 23.6962L110.376 23.6764ZM80.6426 14.0492L79.7459 14.8109L80.6426 14.0492ZM88.5425 16.9902L88.731 18.1515L88.5425 16.9902ZM72.7994 4.81611L73.696 4.05445V4.05445L72.7994 4.81611ZM59.7151 4.81612L60.6117 5.57778V5.57778L59.7151 4.81612ZM125.037 143.188L124.773 144.334C125.196 144.431 125.638 144.288 125.924 143.961C126.209 143.634 126.291 143.176 126.138 142.771L125.037 143.188ZM103.818 138.296L104.082 137.15C103.698 137.062 103.296 137.171 103.01 137.441L103.818 138.296ZM87.8315 153.384L86.7469 153.84C86.8964 154.196 87.2108 154.456 87.5883 154.536C87.9658 154.615 88.3584 154.505 88.639 154.24L87.8315 153.384ZM35.0063 153.384L33.9732 153.947C34.1715 154.311 34.5468 154.544 34.9612 154.56C35.3755 154.576 35.7676 154.373 35.9933 154.025L35.0063 153.384ZM24.278 133.686L25.3112 133.123C25.1052 132.744 24.7088 132.509 24.278 132.509V133.686ZM1.64844 133.686L0.670819 133.031C0.429222 133.392 0.406086 133.857 0.610637 134.24C0.815187 134.623 1.21415 134.862 1.64844 134.862L1.64844 133.686ZM93.7358 55.7541L94.577 56.5765L93.7358 55.7541ZM64.847 85.3026L64.0058 84.4801L64.847 85.3026ZM58.0379 85.3026L58.8791 84.4801L58.0379 85.3026ZM38.7787 65.6036L37.9374 66.426L38.7787 65.6036ZM45.5878 58.6389L46.4291 57.8165L45.5878 58.6389ZM61.4424 74.8556L60.6012 75.6781C60.8226 75.9045 61.1258 76.0321 61.4424 76.0321C61.7591 76.0321 62.0623 75.9045 62.2837 75.6781L61.4424 74.8556ZM86.9266 48.7894L86.0854 47.967L86.9266 48.7894ZM71.9028 5.57778L79.7459 14.8109L81.5392 13.2875L73.696 4.05445L71.9028 5.57778ZM88.731 18.1515L100.542 16.2352L100.165 13.9126L88.3541 15.8289L88.731 18.1515ZM109.2 23.6962L109.406 35.9258L111.759 35.8862L111.553 23.6566L109.2 23.6962ZM114.17 44.3554L124.422 50.6525L125.653 48.6475L115.401 42.3504L114.17 44.3554ZM126.387 62.0993L118.859 71.603L120.704 73.064L128.232 63.5603L126.387 62.0993ZM117.207 81.1775L121.103 92.7415L123.333 91.9903L119.437 80.4262L117.207 81.1775ZM115.446 102.802L103.707 105.133L104.166 107.441L115.905 105.11L115.446 102.802ZM96.3948 111.401L92.112 122.821L94.3151 123.647L98.5979 112.227L96.3948 111.401ZM81.4988 126.788L71.0412 120.856L69.8802 122.902L80.3378 128.835L81.4988 126.788ZM61.4733 120.856L51.0157 126.788L52.1767 128.835L62.6342 122.902L61.4733 120.856ZM40.4025 122.821L36.1197 111.401L33.9166 112.227L38.1994 123.647L40.4025 122.821ZM28.8071 105.133L17.068 102.802L16.6097 105.11L28.3489 107.441L28.8071 105.133ZM11.4116 92.7415L15.3075 81.1775L13.0778 80.4262L9.18178 91.9903L11.4116 92.7415ZM13.655 71.6031L6.12716 62.0993L4.28273 63.5603L11.8106 73.064L13.655 71.6031ZM8.09277 50.6525L18.3445 44.3554L17.113 42.3504L6.86125 48.6475L8.09277 50.6525ZM23.1086 35.9258L23.3144 23.6962L20.9618 23.6566L20.756 35.8862L23.1086 35.9258ZM31.9728 16.2352L43.7835 18.1515L44.1603 15.8289L32.3497 13.9126L31.9728 16.2352ZM52.7685 14.8109L60.6117 5.57778L58.8184 4.05446L50.9753 13.2875L52.7685 14.8109ZM43.7835 18.1515C47.1494 18.6976 50.5448 17.4286 52.7685 14.8109L50.9753 13.2875C49.2769 15.2869 46.7004 16.2411 44.1603 15.8289L43.7835 18.1515ZM23.3144 23.6962C23.3935 18.9951 27.5077 15.5107 31.9728 16.2352L32.3497 13.9126C26.4093 12.9488 21.064 17.5831 20.9618 23.6566L23.3144 23.6962ZM18.3445 44.3554C21.2571 42.5664 23.0505 39.3772 23.1086 35.9258L20.756 35.8862C20.7111 38.5503 19.327 40.9905 17.113 42.3504L18.3445 44.3554ZM6.12716 62.0993C3.2425 58.4575 4.18624 53.052 8.09277 50.6525L6.86125 48.6475C1.73565 51.7959 0.535106 58.829 4.28273 63.5603L6.12716 62.0993ZM15.3075 81.1775C16.4079 77.9115 15.7865 74.294 13.655 71.6031L11.8106 73.064C13.4435 75.1255 13.9257 77.9094 13.0778 80.4262L15.3075 81.1775ZM17.068 102.802C12.6185 101.919 9.91355 97.188 11.4116 92.7415L9.18178 91.9903C7.24733 97.7321 10.7166 103.94 16.6097 105.11L17.068 102.802ZM36.1197 111.401C34.9092 108.173 32.1509 105.797 28.8071 105.133L28.3489 107.441C30.8754 107.943 32.9854 109.744 33.9166 112.227L36.1197 111.401ZM51.0157 126.788C47.0555 129.035 42.0423 127.194 40.4025 122.821L38.1994 123.647C40.3328 129.336 46.9233 131.815 52.1767 128.835L51.0157 126.788ZM71.0412 120.856C68.0665 119.168 64.448 119.168 61.4733 120.856L62.6342 122.902C64.8889 121.623 67.6256 121.623 69.8802 122.902L71.0412 120.856ZM92.112 122.821C90.4722 127.194 85.4589 129.035 81.4988 126.788L80.3378 128.835C85.5912 131.815 92.1817 129.336 94.3151 123.647L92.112 122.821ZM103.707 105.133C100.364 105.797 97.6053 108.173 96.3948 111.401L98.5979 112.227C99.529 109.744 101.639 107.943 104.166 107.441L103.707 105.133ZM121.103 92.7415C122.601 97.188 119.896 101.919 115.446 102.802L115.905 105.11C121.798 103.94 125.267 97.7321 123.333 91.9903L121.103 92.7415ZM118.859 71.603C116.728 74.294 116.107 77.9115 117.207 81.1775L119.437 80.4262C118.589 77.9094 119.071 75.1255 120.704 73.064L118.859 71.603ZM124.422 50.6525C128.328 53.052 129.272 58.4575 126.387 62.0993L128.232 63.5603C131.979 58.829 130.779 51.7959 125.653 48.6475L124.422 50.6525ZM109.406 35.9258C109.464 39.3772 111.257 42.5663 114.17 44.3554L115.401 42.3504C113.187 40.9905 111.803 38.5503 111.759 35.8862L109.406 35.9258ZM100.542 16.2352C105.007 15.5107 109.121 18.9951 109.2 23.6962L111.553 23.6566C111.45 17.5831 106.105 12.9488 100.165 13.9126L100.542 16.2352ZM79.7459 14.8109C81.9696 17.4286 85.365 18.6976 88.731 18.1515L88.3541 15.8289C85.814 16.2411 83.2376 15.2869 81.5392 13.2875L79.7459 14.8109ZM73.696 4.05445C69.7711 -0.565951 62.7433 -0.565942 58.8184 4.05446L60.6117 5.57778C63.5969 2.06354 68.9175 2.06353 71.9028 5.57778L73.696 4.05445ZM125.302 142.041L104.082 137.15L103.553 139.443L124.773 144.334L125.302 142.041ZM103.01 137.441L87.024 152.529L88.639 154.24L104.625 139.152L103.01 137.441ZM88.9161 152.929L76.9716 124.502L74.8024 125.413L86.7469 153.84L88.9161 152.929ZM109.453 105.39L123.937 143.604L126.138 142.771L111.654 104.556L109.453 105.39ZM36.0395 152.822L25.3112 133.123L23.2449 134.248L33.9732 153.947L36.0395 152.822ZM24.278 132.509H1.64844V134.862H24.278V132.509ZM2.62606 134.34L21.9759 105.436L20.0207 104.127L0.670819 133.031L2.62606 134.34ZM50.6092 127.171L34.0194 152.744L35.9933 154.025L52.5831 128.452L50.6092 127.171ZM94.577 56.5765C96.9043 54.1961 96.9043 50.3474 94.577 47.967L92.8946 49.6119C94.3279 51.0779 94.3279 53.4656 92.8946 54.9316L94.577 56.5765ZM65.6882 86.125L94.577 56.5765L92.8946 54.9316L64.0058 84.4801L65.6882 86.125ZM57.1966 86.125C59.5384 88.5203 63.3464 88.5203 65.6882 86.125L64.0058 84.4801C62.587 85.9313 60.2979 85.9313 58.8791 84.4801L57.1966 86.125ZM37.9374 66.426L57.1966 86.125L58.8791 84.4801L39.6199 64.7811L37.9374 66.426ZM37.9374 57.8165C35.6102 60.1969 35.6102 64.0456 37.9374 66.426L39.6199 64.7811C38.1866 63.3151 38.1866 60.9274 39.6199 59.4614L37.9374 57.8165ZM46.4291 57.8165C44.0873 55.4212 40.2792 55.4212 37.9374 57.8165L39.6199 59.4614C41.0387 58.0102 43.3278 58.0102 44.7466 59.4614L46.4291 57.8165ZM62.2837 74.0332L46.4291 57.8165L44.7466 59.4614L60.6012 75.6781L62.2837 74.0332ZM86.0854 47.967L60.6012 74.0332L62.2837 75.6781L87.7679 49.6119L86.0854 47.967ZM94.577 47.967C92.2352 45.5717 88.4272 45.5717 86.0854 47.967L87.7679 49.6119C89.1867 48.1607 91.4758 48.1607 92.8946 49.6119L94.577 47.967ZM109.058 66.7756C109.058 90.4266 89.8849 109.599 66.2339 109.599V111.952C91.1844 111.952 111.411 91.726 111.411 66.7756H109.058ZM66.2339 109.599C42.583 109.599 23.4101 90.4266 23.4101 66.7756H21.0571C21.0571 91.726 41.2835 111.952 66.2339 111.952V109.599ZM23.4101 66.7756C23.4101 43.1246 42.583 23.9517 66.2339 23.9517V21.5988C41.2835 21.5988 21.0571 41.8251 21.0571 66.7756H23.4101ZM66.2339 23.9517C89.8849 23.9517 109.058 43.1246 109.058 66.7756H111.411C111.411 41.8251 91.1844 21.5988 66.2339 21.5988V23.9517Z" fill="#222729"/>
</svg>

<svg xmlns="http://www.w3.org/2000/svg" fill="none" viewBox="0 0 131 155"><path fill="#222729" d="M43.972 16.99l-.189 1.162.189-1.162zm7.9-2.94l-.897-.763.897.762zm-29.734 9.626l-1.176-.02 1.176.02zm10.023-8.602l.189-1.161-.189 1.16zM17.73 43.353l-.616-1.003.616 1.003zm4.203-7.447l1.177.02-1.177-.02zM5.205 62.83l.922-.73-.922.73zm2.272-13.18l.616 1.003-.616-1.003zm6.716 31.152l-1.115-.376 1.115.376zm-1.46-8.469l-.922.731.922-.73zm4.106 31.623l.229-1.154-.23 1.154zm-6.542-11.59l1.115.376-1.115-.376zm24.721 19.448l-1.101.413 1.101-.413zm-6.44-5.527l-.23 1.154.23-1.154zm23.018 21.525l-.58-1.024.58 1.024zm-12.295-4.578l1.102-.413-1.102.413zm31.16-1.355l-.58 1.023.58-1.023zm-8.407 0l.58 1.023-.58-1.023zm31.16 1.355l1.101.413-1.102-.413zm-12.296 4.578l.58-1.024-.58 1.024zm23.018-21.525l.23 1.154-.23-1.154zm-6.44 5.527l-1.101-.413 1.101.413zm24.722-19.448l1.115-.376-1.115.376zm-6.542 11.59l-.23-1.154.23 1.154zm4.106-31.623l-.923-.73.923.73zm-1.46 8.469l-1.115.375 1.115-.375zm6.715-31.152l-.615 1.003.615-1.003zm2.273 13.18l.922.73-.922-.73zm-16.728-26.924l1.177-.02-1.177.02zm4.204 7.447l.615-1.003-.615 1.003zm-14.433-28.28l-.188-1.16.188 1.16zm10.023 8.603l-1.176.02 1.176-.02zM80.643 14.05l-.897.762.897-.762zm7.9 2.941l.188 1.162-.188-1.162zM72.799 4.816l.897-.762-.897.762zm-13.084 0l.897.762-.897-.762zm65.322 138.372l-.264 1.146a1.179 1.179 0 0 0 1.365-1.563l-1.101.417zm-21.219-4.892l.264-1.146a1.178 1.178 0 0 0-1.072.291l.808.855zm-15.986 15.088l-1.085.456a1.177 1.177 0 0 0 1.892.4l-.807-.856zm-52.826 0l-1.033.563a1.177 1.177 0 0 0 2.02.078l-.987-.641zm-10.728-19.698l1.033-.563a1.175 1.175 0 0 0-1.033-.614v1.177zm-22.63 0l-.977-.655a1.177 1.177 0 0 0 .977 1.831v-1.176zm92.088-77.932l.841.823-.841-.823zM64.847 85.303l-.841-.823.841.823zm-6.81 0l.842-.823-.841.823zm-19.258-19.7l-.842.823.842-.822zm6.809-6.964l.841-.823-.841.823zm15.854 16.217l-.84.822a1.177 1.177 0 0 0 1.682 0l-.842-.822zm25.485-26.067l-.842-.822.842.822zM71.903 5.578l7.843 9.233 1.793-1.524-7.843-9.233-1.793 1.524zM88.73 18.15l11.811-1.916-.377-2.322-11.81 1.916.376 2.322zm20.469 5.545l.206 12.23 2.353-.04-.206-12.23-2.353.04zm4.97 20.66l10.252 6.297 1.231-2.005-10.252-6.298-1.231 2.005zm12.217 17.743l-7.528 9.504 1.845 1.461 7.528-9.504-1.845-1.46zm-9.18 19.078l3.896 11.564 2.23-.75-3.896-11.565-2.23.751zm-1.761 21.625l-11.739 2.331.459 2.308 11.739-2.331-.459-2.308zm-19.051 8.599l-4.283 11.42 2.203.826 4.283-11.42-2.203-.826zm-14.896 15.387l-10.458-5.932-1.16 2.046 10.457 5.933 1.16-2.047zm-20.026-5.932l-10.457 5.932 1.16 2.047 10.458-5.933-1.16-2.046zm-21.07 1.965l-4.283-11.42-2.203.826 4.282 11.42 2.204-.826zm-11.596-17.688l-11.739-2.331-.458 2.308 11.739 2.331.458-2.308zM11.412 92.742l3.895-11.565-2.23-.75L9.183 91.99l2.23.752zm2.243-21.139L6.127 62.1 4.283 63.56l7.528 9.504 1.844-1.46zm-5.562-20.95l10.252-6.298-1.232-2.005-10.252 6.297 1.232 2.006zm15.016-14.727l.205-12.23-2.352-.04-.206 12.23 2.353.04zm8.864-19.69l11.81 1.915.377-2.322-11.81-1.916-.377 2.322zm20.796-1.425l7.843-9.233-1.794-1.524-7.843 9.233 1.794 1.524zm-8.986 3.34c3.366.547 6.762-.722 8.986-3.34l-1.794-1.524c-1.698 2-4.275 2.954-6.815 2.542l-.377 2.322zm-20.469 5.545c.08-4.7 4.194-8.185 8.659-7.46l.377-2.323c-5.94-.964-11.286 3.67-11.388 9.744l2.352.04zm-4.97 20.66c2.913-1.79 4.706-4.979 4.765-8.43l-2.353-.04c-.045 2.664-1.429 5.104-3.643 6.464l1.232 2.005zM6.127 62.098c-2.884-3.641-1.94-9.047 1.966-11.446L6.86 48.648C1.736 51.796.535 58.828 4.283 63.56l1.844-1.46zm9.18 19.078c1.1-3.266.48-6.883-1.652-9.574l-1.844 1.461a7.849 7.849 0 0 1 1.267 7.362l2.23.751zm1.761 21.625c-4.45-.883-7.154-5.614-5.656-10.06l-2.23-.752c-1.935 5.742 1.535 11.95 7.428 13.12l.458-2.308zm19.052 8.599c-1.21-3.228-3.97-5.604-7.313-6.268l-.458 2.308c2.526.502 4.636 2.303 5.568 4.786l2.203-.826zm14.896 15.387c-3.96 2.247-8.974.406-10.613-3.967l-2.204.826c2.134 5.689 8.724 8.168 13.978 5.188l-1.161-2.047zm20.025-5.932a9.672 9.672 0 0 0-9.568 0l1.161 2.046a7.321 7.321 0 0 1 7.246 0l1.161-2.046zm21.071 1.965c-1.64 4.373-6.653 6.214-10.613 3.967l-1.161 2.047c5.253 2.98 11.844.501 13.977-5.188l-2.203-.826zm11.595-17.688c-3.343.664-6.102 3.04-7.312 6.268l2.203.826c.931-2.483 3.041-4.284 5.568-4.786l-.459-2.308zm17.396-12.391c1.498 4.446-1.207 9.177-5.657 10.06l.459 2.308c5.893-1.17 9.362-7.378 7.428-13.12l-2.23.752zm-2.244-21.139a10.204 10.204 0 0 0-1.652 9.575l2.23-.752a7.848 7.848 0 0 1 1.267-7.362l-1.845-1.461zm5.563-20.95c3.906 2.399 4.85 7.805 1.965 11.446l1.845 1.461c3.747-4.731 2.547-11.764-2.579-14.913l-1.231 2.006zm-15.016-14.727c.058 3.451 1.851 6.64 4.764 8.43l1.231-2.006c-2.214-1.36-3.598-3.8-3.642-6.464l-2.353.04zm-8.864-19.69c4.465-.725 8.579 2.76 8.658 7.46l2.353-.04c-.103-6.073-5.448-10.707-11.388-9.743l.377 2.322zM79.746 14.81c2.224 2.618 5.619 3.887 8.985 3.34l-.377-2.322c-2.54.412-5.116-.542-6.815-2.542l-1.793 1.524zm-6.05-10.757a9.717 9.717 0 0 0-14.878 0l1.794 1.524a7.364 7.364 0 0 1 11.29 0l1.794-1.524zm51.606 137.987l-21.22-4.891-.529 2.293 21.22 4.891.529-2.293zm-22.292-4.6l-15.986 15.088 1.615 1.711 15.986-15.088-1.615-1.711zm-14.094 15.488l-11.944-28.427-2.17.911 11.945 28.427 2.17-.911zm20.537-47.539l14.484 38.214 2.201-.833-14.484-38.215-2.201.834zM36.04 152.822L25.31 133.123l-2.066 1.125 10.728 19.699 2.066-1.125zm-11.762-20.313H1.648v2.353h22.63v-2.353zM2.626 134.34l19.35-28.904-1.955-1.309L.67 133.031l1.955 1.309zm47.983-7.169l-16.59 25.573 1.974 1.281 16.59-25.573-1.974-1.281zm43.968-70.595c2.327-2.38 2.327-6.229 0-8.609l-1.682 1.645c1.433 1.466 1.433 3.854 0 5.32l1.682 1.645zM65.688 86.125l28.889-29.548-1.682-1.645-28.89 29.548 1.683 1.645zm-8.491 0a5.916 5.916 0 0 0 8.491 0l-1.682-1.645a3.563 3.563 0 0 1-5.127 0l-1.682 1.645zm-19.26-19.699l19.26 19.699 1.682-1.645-19.26-19.699-1.682 1.645zm0-8.61c-2.327 2.38-2.327 6.23 0 8.61l1.683-1.645c-1.433-1.466-1.433-3.854 0-5.32l-1.683-1.645zm8.492 0a5.916 5.916 0 0 0-8.492 0l1.683 1.645a3.563 3.563 0 0 1 5.127 0l1.682-1.645zm15.855 16.217L46.429 57.816l-1.682 1.645L60.6 75.678l1.683-1.645zm23.801-26.066L60.601 74.033l1.683 1.645 25.484-26.066-1.683-1.645zm8.492 0a5.916 5.916 0 0 0-8.492 0l1.683 1.645a3.563 3.563 0 0 1 5.127 0l1.682-1.645zm14.481 18.809c0 23.65-19.173 42.823-42.824 42.823v2.353c24.95 0 45.177-20.226 45.177-45.176h-2.353zm-42.824 42.823c-23.651 0-42.824-19.172-42.824-42.823h-2.353c0 24.95 20.226 45.176 45.177 45.176v-2.353zM23.41 66.776c0-23.651 19.173-42.824 42.824-42.824v-2.353c-24.95 0-45.177 20.226-45.177 45.177h2.353zm42.824-42.824c23.65 0 42.824 19.173 42.824 42.824h2.353c0-24.95-20.227-45.177-45.177-45.177v2.353z"/></svg>
